X: 1384
T: Dirranbandi
C:Mike & Michelle Jackson
B: australian traditional tunes wiki
M:2/4
L:1/8
R: Reel
Q: 1/4=100
K:Em
V:1 
|:B/2A/2|"Em"GE GA|B/2c/2B/2G/2 "D"A>d|"Em"eB B/2A/2G|"D"A/2B/2A/2G/2 FB/2A/2|
"Em"GE GA|B/2c/2B/2G/2 "D"A>d|"Em"eB B/2A/2G|G/2E/2"D"F/2D/2 "Em"E:|
|:z|"Em"bb/2g/2 ee/2f/2|"D"a/2f/2d/2f/2 a/2f/2d/2f/2|"Em"bb/2g/2 ee/2f/2|g/2a/2f/2g/2 e/2f/2g/2a/2|
"Em"bb/2g/2 ee/2f/2|"D"a/2f/2d/2f/2 a/2f/2d/2f/2|"Em"b/2g/2e/2d/2 e/2d/2B/2A/2|G/2E/2"D"F/2D/2 "Em"E:|
% abcbook-tune_id 6342d53a55b04b06fdf6d2c8


% abcbook-boost 0
% abcbook-tablature 
% abcbook-transpose 
% abcbook-lastupdated 1665324362373
% abcbook-soundfonts 
% abcbook-repeats 1
% NFF Book 2019

